X:59
T:Come Hast to the Wedding. JaW.059
T:Haste To The Wedding. JaW.059
T:Rural Felicity,aka. JaW.059
M:6/8
L:1/8
Q:3/8=120
S:James Winder Ms, Lancashire, 1835-41
R:.Jig
O:England
A:Wyresdale,Lancashire
N:Hast = Haste
Z:vmp.Chris Partington, Aug 2004
K:C
G2|GEG Gge|dcd ecA|GEG AcE|DDDD2G|!
GEG Gge|dcd ecA|GEG ege|cccc2:|!
|:g|(ge)g (ge)g|(af)a (af)a|(ge)g gfe|dddd3|!
{ef}g3e3|dcd ecA|GEG ege|cccc3:|

